src/images/crypto-icon-svg/nlg.svg

<svg xmlns="http://www.w3.org/2000/svg" width="32" height="32" viewBox="0 0 32 32">
  <g fill="none" fill-rule="evenodd">
    <circle cx="16" cy="16" r="16" fill="#2AB0FD"/>
    <path fill="#FFF" d="M25.515224,14.8042885 C25.6796598,14.8019231 25.7841588,14.8235576 25.8511952,14.8847096 C25.9201095,14.9475747 25.9494329,15.0522025 25.9635819,15.2154516 C26.4299169,20.5937947 22.3618601,25.4563542 16.965526,25.9555823 C11.4020072,26.4702948 6.57245259,22.4545822 6.04369899,16.8742945 C5.5304498,11.4574412 9.59944219,6.54140009 15.0313963,6.04725912 C18.1071268,5.76746828 20.7634364,6.73308136 22.9988995,8.86268235 C23.0218442,8.88452567 23.0168098,8.97662906 22.9911696,9.00273395 C22.4884794,9.51412199 21.9822028,10.0220071 21.4704015,10.5242473 C21.4422441,10.551847 21.3379904,10.5480317 21.3058677,10.5186023 C18.9987413,8.40511053 16.326014,7.77879405 13.402788,8.84382882 C10.4457242,9.92117974 8.75480866,12.1502693 8.42133034,15.2911558 C7.9702547,19.5396927 11.1775053,23.284673 15.4556734,23.6075927 C19.3342245,23.9003244 22.8482885,21.155072 23.4908524,17.323477 C23.4973126,17.2849221 23.4103899,17.1896281 23.3668618,17.1895389 C20.972278,17.1829123 18.5776498,17.1850319 16.183066,17.1758394 C16.1205583,17.1756163 16.0056342,17.0608217 16.0043867,16.9977238 C15.9913327,16.3286577 15.9919565,15.6591232 16.0040303,14.9900125 C16.0050996,14.9303059 16.1123829,14.8216025 16.170814,14.8212678 C17.767166,14.8119861 23.9970845,14.8260426 25.515224,14.8042885 Z"/>
  </g>
</svg>

<svg xmlns="http://www.w3.org/2000/svg" width="32" height="32"><g fill="none" fill-rule="evenodd"><circle cx="16" cy="16" r="16" fill="#2AB0FD"/><path fill="#FFF" d="M25.515 14.804c.165-.002.27.02.336.08.07.064.098.168.113.331.466 5.379-3.602 10.241-8.998 10.74-5.564.515-10.394-3.5-10.922-9.08C5.53 11.456 9.599 6.54 15.03 6.046c3.076-.28 5.732.686 7.968 2.816.023.022.018.114-.008.14a119.48 119.48 0 0 1-1.52 1.521c-.029.028-.133.024-.165-.005-2.307-2.114-4.98-2.74-7.903-1.675C10.446 9.92 8.755 12.15 8.42 15.29c-.45 4.249 2.757 7.994 7.035 8.317 3.878.292 7.392-2.453 8.035-6.285.006-.038-.08-.133-.124-.133-2.395-.007-4.79-.005-7.184-.014-.062 0-.177-.115-.179-.178a53.477 53.477 0 0 1 0-2.008c.001-.06.108-.168.167-.169 1.596-.009 7.826.005 9.344-.017z"/></g></svg>
